X:25
T:Prince of Wales's March,The. BC.25
M:C|
L:1/8
Q:100
S:Benjamin Cooke MS.circa 1770, F.Kidson Coll.
R:March
O:England
A:x
Z:vmp.John Bagnall
K:G
G>A | B2 B>B BAGF | G>F G4 ((3ABc) | Bagf edcB | A4 z2 B>c |
 d2 d>d d2 e>f | g2 G>G G2 ((3ABc) | Bgfe dcBA | G6 :|
|: B>c | d2 d>d d2 A>B | c2 c>c c2 G>A | B2 B>B B2 c>B | A2 A>A A2 B>c |
 d2 B2 d2 B2 | g2 d2 b2 G2 | ((3ced) ((3cBA) G2 F2 | G2 G>G G2 :|]

